!!!COM: Jules Massenet
!!!CNT: Francais
!!!TXO: Francais
!!!OTL: "A columbine (Se/re/nade d'Arlequin"
!!!LYR: Gallet
!!!OPR: 
!!!OPS: Op. 
!!!ONM: No.
!!!ENC: Emily Thomas
!!!YOR: CD Sheet Music French Art Songs, The Ultimate Collection
!!!YOR: CD Sheet Music, LLC 2003
!!!ODT: 1872/
!!NB: Vocal melody and text encoded.
**kern	**silbe
=1	=1
*clefG2	*
*k[b-]	*
*M4/4	*
*MM[Vif et gai mais bien mesure/. (il pre/lude)]	*
1r	.
=2	=2
1r	.
=3	=3
1r	.
=4	=4
*M2/4	*
2r	.
=5	=5
2r	.
=6	=6
{4.a	{Co-
8g	-lom-
=7	=7
4f	-bi-
8c	-oe
8a	char-
=8	=8
4.b-	-man-
8a	|
=9	=9
4g}	-te,}
{8dd	{C'est
8b-	pour
=10	=10
8cc	toi
8a	|
8ff	que
8dd	je
=11	=11
4cc	chan-
16ddq	|
16ccq	|
8bn}	-te;}
{8a	{Re/-
=12	=12
4g	-ponds
8f	a\
8dd	ma
=13	=13
4cc}	voix.}
4r	.
=14	=14
{4b-	{La
4a	|
=15	=15
[4g	bri-
16g]	|
16b-	-se
16dd	car-
16b-	-es-
=16	=16
4a	-san-
4g	|
=17	=17
8f}	-te}
8r	.
{8g	{Court
8e-	les
=18	=18
4d	monts,
16ff}	|}
16r	.
{8dd	{les
=19	=19
4cc	monts
16ddq	et
16ccq	|
8b-	|
8g	les
=20	=20
4f}	bois,}
4r	.
=21	=21
{4dd	{C'est
4ee	|
=22	=22
4ff	l'heu-
16ggq	|
16ffq	|
8ee	|
8dd	-re
=23	=23
4cc#	bien-
4dd	-heu-
=24	=24
8cc#	-reu-
8cc#}	-se}
16r	.
{16cc#	{Que
16ee	j'at-
16a	-ten-
=25	=25
4b-	-dais,
4a	blonde
=26	=26
4g	a-
4f	-mou-
=27	=27
4e	-reu-
16fq	|
16gq	|
8f	|
8e	|
=28	=28
4d}	-se.}
4r	.
=29	=29
{4.a	{Veux-
8g	-tu
=30	=30
4f	pas,
8cc	en-
8a	-ri-
=31	=31
4.b-	-eu-
8a	|
=32	=32
4g}	-se,}
{8dd	{Par-
8b-	-ta-
=33	=33
8cc	-ger
8a	|
16gg	mon
16ff	|
16ee	i-
16dd	|
=34	=34
4cc	-vers-
16ddq	-se
16ccq	|
8b-	-se
8a	Et
=35	=35
8cc	m'im-
8b-	-po-
8.a	-ser
16g	tes
=36	=36
*MM[Allegro vivo.]	*
4f}	lois?}
4r	.
=37	=37
2r	.
=38	=38
2r	.
=39	=39
2r	.
=40	=40
2r	.
=41	=41
2r	.
=42	=42
{[4a	{Mais
16a]	|
16b-	|
16g	en
16a	|
=43	=43
4f	vain
8cc	je
8a	t'ap-
=44	=44
[4b-	-pel-
16b-]	|
16cc	|
16a	|
16b-	|
=45	=45
4g}	-le,}
{8dd	{Ma
8b-	|
=46	=46
8cc	nuit
8a	fi-
8ff	-ni-
8dd	-ra-
=47	=47
4cc	tel-
16ddq	-le
16ccq	|
8bn	|
8a	Ain-
=48	=48
4g}	-si,}
{8f	{sot-
8dd	-te-
=49	=49
4cc}	-ment!}
4r	.
=50	=50
{4b-	{Et
8a	te
8a	plais-
=51	=51
[4g	tu,
16g]	|
16b-	|
16dd	cru-
16b-	|
=52	=52
4a	-el-
4g	|
=53	=53
8f}	-le,}
8r	.
{8g	{A
8e-	rail-
=54	=54
4d	-ler,
16ff	a\
16r	.
8dd	rail-
=55	=55
4cc	-ler,
16ddq	mon
16ccq	|
8b-	mon
8g	tour-
=56	=56
4f}	-ment?}
4r	.
=57	=57
{4dd	{Je
8ee	ne
8ee	suis
=58	=58
4ff	pas
16ggq	|
16ffq	|
8ee	|
8dd	Le/-
=59	=59
4cc#	-an-
4dd	|
=60	=60
4cc#}	-dre;}
16r	.
{16cc#	{Mon
16ee	coeur
16a	plus
=61	=61
4b-	vif
4a	est
=62	=62
4g	las
4f	d'at
=63	=63
4e	-ten-
16fq	|
16gq	|
8f	|
8e	|
=64	=64
4d}	-dreÖ}
4r	.
=65	=65
{[4a	{Si
16a]	|
16b-	|
16g	tu
16a	|
=66	=66
16f	dors
16ff	|
16ee	sans
16dd	m'en-
8cc	-ten-
8a}	-dre,}
=67	=67
{[4b-	{Si
16b-]	|
16cc	|
16a	tu
16b-	|
=68	=68
16g	dors,
16a	|
16b-	tu
16bn	vas
16cc	voir
16cc#	|
16dd	que
16b-	l'a-
=69	=69
8ccn	-mour,
16a	|
16r	.
16gg	que
16ff	|
16ee	l'a-
16dd	|
=70	=70
4cc	-mour
16ddq	|
16ccq	|
8b-	|
8a	peut
=71	=71
16cc	ve-
16b-	|
16ff	-nir
16b-	|
8.a	en
16g	dor-
=72	=72
*MM[Allegro subito.]	*
4f}	-mant!}
==	==
*-	*-
